app/views/shared/svg/k12/_svg_icon_dashboard.svg

<?xml version="1.0" encoding="UTF-8" standalone="no"?>
<svg width="36px" height="36px" class="ic-icon-svg ic-icon-svg--dashboard" viewBox="0 0 36 36" version="1.1" xmlns="http://www.w3.org/2000/svg" xmlns:xlink="http://www.w3.org/1999/xlink" xmlns:sketch="http://www.bohemiancoding.com/sketch/ns">
    <!-- Generator: Sketch 3.3.2 (12043) - http://www.bohemiancoding.com/sketch -->
    <title>Oval-95</title>
    <desc>Created with Sketch.</desc>
    <defs></defs>
    <g id="Page-1" stroke="none" stroke-width="1" fill="none" fill-rule="evenodd" sketch:type="MSPage">
        <g id="_svg_icon_dashboard" sketch:type="MSLayerGroup" fill="#000000">
            <g id="Page-2" sketch:type="MSShapeGroup">
                <g id="1--Courses-Art-History-Modules">
                    <path d="M21.8688757,16.980367 L29.145608,9.703634 C29.9251696,8.924073 29.9231842,7.659728 29.1421356,6.87868 C28.3556417,6.092186 27.0963117,6.096076 26.3171809,6.875207 L19.05248,14.139908 C18.7171266,14.048687 18.364249,14 18,14 C15.790861,14 14,15.790861 14,18 C14,20.209139 15.790861,22 18,22 C20.209139,22 22,20.209139 22,18 C22,17.647623 21.9544351,17.305889 21.8688757,16.980367 L21.8688757,16.980367 L21.8688757,16.980367 Z M18,36 C27.9411255,36 36,27.941125 36,18 C36,8.058875 27.9411255,0 18,0 C8.0588745,0 0,8.058875 0,18 C0,27.941125 8.0588745,36 18,36 L18,36 Z M2,18 C2,17.447715 2.4509752,17 2.990778,17 L7.009222,17 C7.5564136,17 8,17.443865 8,18 C8,18.552285 7.5490248,19 7.009222,19 L2.990778,19 C2.4435864,19 2,18.556135 2,18 L2,18 Z M17,3.990778 C17,3.443586 17.4438648,3 18,3 C18.5522847,3 19,3.450975 19,3.990778 L19,8.009222 C19,8.556414 18.5561352,9 18,9 C17.4477153,9 17,8.549025 17,8.009222 L17,3.990778 L17,3.990778 Z M6.7005858,8.114799 C6.313663,7.727877 6.3138598,7.100354 6.7071068,6.707107 C7.0976311,6.316582 7.7331012,6.318888 8.1147994,6.700586 L10.9562684,9.542055 C11.3431913,9.928978 11.3429944,10.556501 10.9497475,10.949747 C10.5592232,11.340272 9.9237531,11.337967 9.5420549,10.956268 L6.7005858,8.114799 L6.7005858,8.114799 Z M28,18 C28,17.447715 28.4509752,17 28.990778,17 L33.009222,17 C33.5564136,17 34,17.443865 34,18 C34,18.552285 33.5490248,19 33.009222,19 L28.990778,19 C28.4435864,19 28,18.556135 28,18 L28,18 Z M18,20 C19.1045695,20 20,19.104569 20,18 C20,16.895431 19.1045695,16 18,16 C16.8954305,16 16,16.895431 16,18 C16,19.104569 16.8954305,20 18,20 L18,20 Z" id="Oval-95"></path>
                </g>
            </g>
        </g>
    </g>
</svg>

<svg width="36" height="36" class="ic-icon-svg ic-icon-svg--dashboard" viewBox="0 0 36 36" xmlns="http://www.w3.org/2000/svg"><title>Oval-95</title><path d="M21.87 16.98l7.276-7.276c.78-.78.777-2.044-.004-2.825a1.993 1.993 0 0 0-2.825-.005l-7.265 7.265A4.005 4.005 0 0 0 14 18a4 4 0 1 0 7.87-1.02zM18 36c9.94 0 18-8.06 18-18S27.94 0 18 0 0 8.06 0 18s8.06 18 18 18zM2 18a1 1 0 0 1 .99-1h4.02c.546 0 .99.444.99 1a1 1 0 0 1-.99 1H2.99A.993.993 0 0 1 2 18zM17 3.99c0-.546.444-.99 1-.99a1 1 0 0 1 1 .99v4.02c0 .546-.444.99-1 .99a1 1 0 0 1-1-.99V3.99zM6.7 8.116a.993.993 0 0 1 .007-1.408A1 1 0 0 1 8.115 6.7l2.84 2.842a.993.993 0 0 1-.005 1.408 1 1 0 0 1-1.408.006l-2.84-2.84zM28 18a1 1 0 0 1 .99-1h4.02c.546 0 .99.444.99 1a1 1 0 0 1-.99 1h-4.02a.993.993 0 0 1-.99-1zm-10 2a2 2 0 1 0 0-4 2 2 0 0 0 0 4z" fill="currentColor" fill-rule="evenodd"/></svg>
